src/img/social/gplus-m.svg

<svg width="32" height="32" viewBox="0 0 48 48" fill="none" xmlns="http://www.w3.org/2000/svg">
    <path fill-rule="evenodd" clip-rule="evenodd" d="M24 48C37.2548 48 48 37.2548 48 24C48 10.7452 37.2548 0 24 0C10.7452 0 0 10.7452 0 24C0 37.2548 10.7452 48 24 48Z" fill="rgba(255, 255, 255, 0.12)"/>
    <path fill-rule="evenodd" clip-rule="evenodd" d="M18.3488 15.1959C13.9113 15.2501 10.0283 19.4269 10.1967 23.9466C10.1227 27.6042 12.594 31.0946 15.9923 32.2326C19.1944 33.3293 23.1305 32.5089 25.2609 29.7134C26.8168 27.755 27.1699 25.1437 27.0015 22.7036C24.5638 22.6814 22.1261 22.6855 19.6913 22.6896C19.3874 22.6901 19.0837 22.6906 18.7799 22.6911C18.7758 23.6851 18.7799 24.6753 18.784 25.6693L18.784 25.6749C19.6921 25.7005 20.6003 25.7056 21.5084 25.7106C22.2422 25.7147 22.9759 25.7188 23.7095 25.7337C23.2951 27.1816 22.3507 28.5292 20.9182 29.0521C18.1518 30.2951 14.6219 28.6713 13.7514 25.7125C12.7003 22.8794 14.4205 19.4602 17.2609 18.6356C19.0219 18.0039 20.8361 18.7152 22.3429 19.6485C23.1059 18.9202 23.8203 18.1422 24.5224 17.3551C22.8108 15.8947 20.6105 14.9992 18.3488 15.1959ZM34.7801 20.1798H32.3381C32.3296 21.0127 32.3214 21.8498 32.3173 22.682C31.4966 22.6903 30.6797 22.6945 29.8627 22.6987V25.1929C29.9741 25.1935 30.0855 25.1941 30.1969 25.1947C30.9034 25.1986 31.612 25.2024 32.3173 25.21C32.3218 25.6459 32.3239 26.0818 32.326 26.5182C32.328 26.9157 32.3299 27.3136 32.3337 27.7125C32.6042 27.7125 32.8752 27.7121 33.1466 27.7116C33.6903 27.7107 34.2353 27.7098 34.7801 27.7125L34.7811 27.5156C34.7852 26.7448 34.7893 25.9772 34.7968 25.2058L37.2514 25.1933V22.6991L37.2395 22.699C36.4265 22.6949 35.6094 22.6907 34.7968 22.6824C34.7946 22.2663 34.7915 21.8491 34.7884 21.4318C34.7854 21.0141 34.7823 20.5965 34.7801 20.1798Z" fill="rgba(255, 255, 255, 0.82)"/>
</svg>

<svg width="32" height="32" viewBox="0 0 48 48" fill="none" xmlns="http://www.w3.org/2000/svg"><path fill-rule="evenodd" clip-rule="evenodd" d="M24 48c13.255 0 24-10.745 24-24S37.255 0 24 0 0 10.745 0 24s10.745 24 24 24z" fill="rgba(255, 255, 255, 0.12)"/><path fill-rule="evenodd" clip-rule="evenodd" d="M18.349 15.196c-4.438.054-8.32 4.23-8.152 8.75-.074 3.658 2.397 7.149 5.795 8.287 3.202 1.096 7.139.276 9.269-2.52 1.556-1.958 1.909-4.57 1.74-7.01a677.452 677.452 0 00-7.31-.013l-.911.001c-.004.994 0 1.984.004 2.978v.006c.908.026 1.816.03 2.724.036.734.004 1.468.008 2.201.023-.414 1.448-1.358 2.795-2.79 3.318-2.767 1.243-6.297-.38-7.168-3.34-1.05-2.833.67-6.252 3.51-7.076 1.76-.632 3.575.08 5.082 1.012.763-.728 1.477-1.506 2.18-2.293-1.712-1.46-3.913-2.356-6.174-2.16zM34.78 20.18h-2.442c-.008.833-.017 1.67-.02 2.502-.821.008-1.638.013-2.455.017v2.494l.334.002c.706.004 1.415.007 2.12.015.005.436.007.872.009 1.308.002.398.004.796.008 1.194h.813c.543-.001 1.088-.002 1.633 0l.001-.196c.004-.771.008-1.539.016-2.31l2.454-.013V22.7h-.011c-.814-.004-1.63-.008-2.443-.017l-.009-1.25-.008-1.252z" fill="rgba(255, 255, 255, 0.82)"/></svg>
